X:149
T:PILE MENU 4
Z: Yves BELOTTEAU
M:4/4
L:1/4
Q:1/4=120
K:G 
|B/2B/2BAG B/2B/2BAB|B/2B/2BAG B/2B/2BAB|B/2B/2BAG B/2B/2BAB|B/2B/2BAG B
/2B/2BAB|
G/2G/2GAB3/2 z/2 dBA|F/2F/2FGA B/2c/2BAB|GG/2G/2GA B3/2 z/2 dB|AF/2F/2FG
 AB/2c/2BA|
G3/2|
